X:280
T:Lonesome Fiddle Blues
C:Vasser Clements
N:Transcribed by Richard A Taylor
R:bluegrass
L:1/8
Q:1/4=120
M:4/4
K:F
z8 | 
K:C
|: D^C DE FE FG | AG FE DF ED | CB, CD ED EF | GA GF ED C^C | D^C DE FE FG | ^GA =GF DF Ac | 
|1 dc A^G =GF DE | FD E^C D2 A,=C :|2 de fe dc A^G | GF DC D2 e^f | ge ga bd' ba | 
ge dc BA GB | A^F GE FD E^C | D^C DE ^FE D^D | E^D E^F ^GF GA | B^c dc BA ^GB | 
AB ^ce e'^c' ae | ^c'a ed ^cB A2 | d^c de fe fg | ag fe dG AB | cB cd ed ef | 
ge fd ed ce | d^c de fe fg | ag fe d2 Ac | dc AG cA GF | AG FE D4 | z8 | z8 | 


